X:1
T:O give me a cot
N:Welsh Folk Song
B: Singing Together, Summer 1959. From 'Songs of the British Isles' (J Curwen and Sons)
Q:1/4=120     %Tempo
V:1     %
%!STAVE 0 'Melody' @
%!INSTR 'Piano 1' 0 0 @
|:
M:3/4     %Meter
L:1/8     %
K:C 
|:G2 |c2 G2 E2 |C3 D E2 |F2 A2 d2 | B2 G2
w:O give me a cot in the land of the moun-tains,
w:There let me a-bide a-mid tor-rents and foun-tains,
G2 |c2 G2 E2 |F3 G A2 |G2 c2 B2 | c4 :|
w:Se-clu-ded Ma-rion-eth who name I love well
w:That leap on the hill-side and spring in the dell
cd |e2 c2 e2 |d2 B2
w: O_ would I might ram-ble
G2 | A2 AB ce | B2 G2
w:all day through_ the_ mea-dows
G2 |e2 c2 e2 |d2 B2 G2 |c2 B2 A2 | G4
w:Charmed by the soft mur-murs of wan-der-ing bees
AB |c2 G2 E2 |C3 D E2 |F2 A2 d2 | B2 G2
w:Or_ lis-ten while eve-ning is cast-ing its sha-dows
 G2 |c2 G2 E2 |F3 G A2 | G2 c2 B2 |c4 ||
w:To frol-ick-ing birds in the boughs of the trees
%End of file